!!!SOCIAL_FUNCTION:	songs in honor of an individual
!!!PDT:	1918

Specific Region: Dakotas, Minnesota, Montana, Nebraska
!!!REG: Dakotas and Montana
!!!LING_GROUP: Siouan
!!!LANG: Tone
!!!OTL@ENG: I Donated a Horse
!!!ONM: No. 229
**kern
*Imale
*clefG2
*k[b-e-]
*M2/4
*MM80
4g
4g
=2
8g
8d
16d
8.c
=3
8B-
8B-
[4B-
=4
2B-]
=5||
*M3/4
8d
16f
16d
4.d
8c
*clefF4
=6||
*M2/4
16c
8.B-
4B-
=7
*M3/4
16G
16G
8G
2G
=8
16B-
16B-
8G
2c
=9||
*M2/4
16B-
16B-
8G
8G
8G
=10
2G
=11
2G
=12
8d
8c
8B-
8B-
=13||
*M3/4
2.B-
=14
16f
8.d
16f
8.d
4d
=15
16d
8.c
16c
8.B-
16B-
8.B-
=16||
*M2/4
8B-
[8G
8G]
8G
=17
2G
=18
12B-
12B-
12G
4c
=19||
*M3/4
16c
8.B-
16B-
8.G
8G
8G
=20||
*M2/4
2G
=21
2G
==
*-
!!!CNT: Native American -- Sioux
!!!MRD: 1911/07//-1914///
!!!OCL: Frances Densmore
!!!YOR1: Teton Sioux Music, Bulletin 61,
!!!YOR2: Bureau of American Ethnology, Smithsonian Institution
!!!PPR: Government Printing Office
!!!PPP: Washington, D.C.
!!!PDT: 1918///
!!!ENC: Craig Stuart Sapp
!!!END: 2002/03/25/
!!!EEV: 2002/03/31/
!!!AGN: Song in Honor of an Individual
!!!MPN@@SIO: Oku'te
!!!MPN@ENG: Shooter
!!!TXO: Teton Sioux
!!!MLC: Standing Rock Reservation, South Dakota, United States of America
!!!ARL: 45.9/-100.7#
!!!catalog: Catalogue No. 579
!!!PPG: 507
!!!EFL: 234/245
!!!VTS: 3983320846
